icon-themes/sifr_svg/cmd/sc_gluepercent.svg

<svg viewBox="0 0 16 16" xmlns="http://www.w3.org/2000/svg"><g fill="#555753"><path d="m3 1a3 3 0 0 0 -3 3v2a3 3 0 0 0 3 3 3 3 0 0 0 3-3v-2a3 3 0 0 0 -3-3zm9 0-10 13 1 1 10-13zm-9 2a1 1 0 0 1 1 1v2a1 1 0 0 1 -1 1 1 1 0 0 1 -1-1v-2a1 1 0 0 1 1-1zm9 4a3 3 0 0 0 -3 3v2a3 3 0 0 0 3 3 3 3 0 0 0 3-3v-2a3 3 0 0 0 -3-3zm0 2a1 1 0 0 1 1 1v2a1 1 0 0 1 -1 1 1 1 0 0 1 -1-1v-2a1 1 0 0 1 1-1z" opacity=".35"/><path d="m8 6c1.108 0 2 .9 2 2v2h2.541016c.713616-1.2360223 2.03175-2 3.458984-2v8c-1.427234 0-2.745368-.763978-3.458984-2h-4.541016c-1.1 0-2-.892-2-2v-4c0-1.1.9-2 2-2z"/></g></svg>

<svg xmlns="http://www.w3.org/2000/svg" viewBox="0 0 16 16">
  <path
     style="fill:#555753;opacity:0.35"
     d="M 3,1 A 3,3 0 0 0 0,4 V 6 A 3,3 0 0 0 3,9 3,3 0 0 0 6,6 V 4 A 3,3 0 0 0 3,1 Z M 12,1 2,14 3,15 13,2 Z M 3,3 A 1,1 0 0 1 4,4 V 6 A 1,1 0 0 1 3,7 1,1 0 0 1 2,6 V 4 A 1,1 0 0 1 3,3 Z m 9,4 a 3,3 0 0 0 -3,3 v 2 a 3,3 0 0 0 3,3 3,3 0 0 0 3,-3 V 10 A 3,3 0 0 0 12,7 Z m 0,2 a 1,1 0 0 1 1,1 v 2 a 1,1 0 0 1 -1,1 1,1 0 0 1 -1,-1 v -2 a 1,1 0 0 1 1,-1 z"
     />
  <path
     style="fill:#555753"
     d="m 8,6 c 1.108,0 2,0.9 2,2 v 2 h 2.541016 C 13.254632,8.7639777 14.572766,8 16,8 v 8 C 14.572766,16 13.254632,15.236022 12.541016,14 H 8 C 6.9,14 6,13.108 6,12 V 8 C 6,6.9 6.9,6 8,6 Z"
     />
</svg>
